components/Common/Svg/svgs/fintech.svg

<svg width="90" height="90" viewBox="0 0 90 90" fill="none" xmlns="http://www.w3.org/2000/svg">
<circle opacity="0.7" cx="45" cy="45" r="45" fill="#FFE603"/>
<path fill-rule="evenodd" clip-rule="evenodd" d="M43.7397 34.7777C43.7397 33.9476 44.3057 33.0253 45.5865 32.2568C46.8474 31.5003 48.6539 31 50.7027 31C52.7515 31 54.558 31.5003 55.8189 32.2568C57.0997 33.0253 57.6657 33.9476 57.6657 34.7777C57.6657 35.6078 57.0997 36.5301 55.8189 37.2986C54.558 38.0551 52.7515 38.5554 50.7027 38.5554C48.6539 38.5554 46.8474 38.0551 45.5865 37.2986C44.3057 36.5301 43.7397 35.6078 43.7397 34.7777ZM50.7027 29C48.3537 29 46.1787 29.5692 44.5575 30.5419C42.9563 31.5026 41.7397 32.9691 41.7397 34.7777V34.7778V41.148V41.1481V47.5183V47.5183V53.8886C41.7397 55.6974 42.9566 57.1639 44.5578 58.1246C46.179 59.0972 48.3541 59.6663 50.7027 59.6663C53.0514 59.6663 55.2264 59.0972 56.8476 58.1246C58.4489 57.1639 59.6657 55.6974 59.6657 53.8886V47.5183V47.5183V41.1481V41.148V34.7778V34.7777C59.6657 32.9691 58.4491 31.5026 56.8479 30.5419C55.2267 29.5692 53.0517 29 50.7027 29ZM57.6657 51.1907C57.4085 51.3941 57.1342 51.5823 56.8476 51.7542C55.2264 52.7268 53.0514 53.296 50.7027 53.296C48.3541 53.296 46.179 52.7268 44.5578 51.7542C44.2712 51.5823 43.9969 51.3941 43.7397 51.1907V53.8886C43.7397 54.7188 44.3058 55.6411 45.5868 56.4096C46.8477 57.1661 48.6542 57.6664 50.7027 57.6664C52.7512 57.6664 54.5577 57.1661 55.8187 56.4096C57.0996 55.6411 57.6657 54.7188 57.6657 53.8886V51.1907ZM43.7397 41.1481V41.148V38.4502C43.9969 38.6536 44.271 38.8416 44.5575 39.0135C46.1787 39.9862 48.3537 40.5554 50.7027 40.5554C53.0517 40.5554 55.2267 39.9862 56.8479 39.0135C57.1344 38.8416 57.4086 38.6536 57.6657 38.4502V41.148V41.1481C57.6657 41.9782 57.0996 42.9005 55.8187 43.669C54.5577 44.4255 52.7512 44.9258 50.7027 44.9258C48.6542 44.9258 46.8477 44.4255 45.5868 43.669C44.3058 42.9005 43.7397 41.9782 43.7397 41.1481ZM56.8476 45.384C57.1342 45.2121 57.4085 45.0239 57.6657 44.8205V47.5183C57.6657 48.3484 57.0996 49.2707 55.8187 50.0392C54.5577 50.7957 52.7512 51.296 50.7027 51.296C48.6542 51.296 46.8477 50.7957 45.5868 50.0392C44.3058 49.2707 43.7397 48.3484 43.7397 47.5183V44.8205C43.9969 45.0239 44.2712 45.2121 44.5578 45.384C46.179 46.3566 48.3541 46.9258 50.7027 46.9258C53.0514 46.9258 55.2264 46.3566 56.8476 45.384ZM34.1851 38.5554V37.9628C34.1851 37.4105 33.7373 36.9628 33.1851 36.9628C32.6328 36.9628 32.1851 37.4105 32.1851 37.9628V38.5615C31.3606 38.6112 30.5799 38.9606 29.9926 39.548C29.357 40.1835 29 41.0455 29 41.9442C29 42.843 29.357 43.705 29.9926 44.3405C30.6281 44.976 31.4901 45.3331 32.3889 45.3331H33.9815C34.3498 45.3331 34.7031 45.4794 34.9636 45.7399C35.224 46.0003 35.3704 46.3536 35.3704 46.722C35.3704 47.0903 35.224 47.4436 34.9636 47.704C34.7031 47.9645 34.3498 48.1108 33.9815 48.1108H33.1916C33.1894 48.1108 33.1872 48.1108 33.1851 48.1108C33.1829 48.1108 33.1807 48.1108 33.1785 48.1108H30C29.4477 48.1108 29 48.5585 29 49.1108C29 49.6631 29.4477 50.1108 30 50.1108H32.1851V50.7034C32.1851 51.2556 32.6328 51.7034 33.1851 51.7034C33.7373 51.7034 34.1851 51.2556 34.1851 50.7034V50.1047C35.0096 50.0551 35.7904 49.7056 36.3778 49.1182C37.0133 48.4827 37.3704 47.6207 37.3704 46.722C37.3704 45.8232 37.0133 44.9612 36.3778 44.3257C35.7422 43.6901 34.8803 43.3331 33.9815 43.3331H32.3889C32.0205 43.3331 31.6673 43.1868 31.4068 42.9263C31.1463 42.6659 31 42.3126 31 41.9442C31 41.5759 31.1463 41.2226 31.4068 40.9622C31.6673 40.7017 32.0205 40.5554 32.3889 40.5554H36.3704C36.9227 40.5554 37.3704 40.1077 37.3704 39.5554C37.3704 39.0031 36.9227 38.5554 36.3704 38.5554H34.1851Z" fill="#161616"/>
</svg>

<svg width="90" height="90" viewBox="0 0 90 90" fill="none" xmlns="http://www.w3.org/2000/svg"><circle opacity=".7" cx="45" cy="45" r="45" fill="#FFE603"/><path fill-rule="evenodd" clip-rule="evenodd" d="M43.74 34.778c0-.83.566-1.753 1.846-2.521C46.848 31.5 48.654 31 50.703 31c2.048 0 3.855.5 5.116 1.257 1.28.768 1.847 1.69 1.847 2.52 0 .83-.566 1.753-1.847 2.522-1.261.756-3.068 1.256-5.116 1.256-2.05 0-3.856-.5-5.117-1.256-1.28-.769-1.846-1.691-1.846-2.521ZM50.703 29c-2.35 0-4.524.57-6.146 1.542-1.6.96-2.817 2.427-2.817 4.236v19.11c0 1.81 1.217 3.276 2.818 4.237 1.621.972 3.796 1.541 6.145 1.541 2.348 0 4.523-.569 6.145-1.541 1.6-.961 2.818-2.428 2.818-4.236V34.778c0-1.809-1.217-3.275-2.818-4.236C55.227 29.569 53.052 29 50.703 29Zm6.963 22.19a7.726 7.726 0 0 1-.818.564c-1.622.973-3.797 1.542-6.145 1.542-2.349 0-4.524-.57-6.145-1.542a7.726 7.726 0 0 1-.818-.563v2.698c0 .83.566 1.752 1.847 2.52 1.26.757 3.067 1.257 5.116 1.257 2.048 0 3.855-.5 5.116-1.256 1.28-.769 1.847-1.691 1.847-2.521V51.19ZM43.74 41.149V38.45c.257.204.531.392.817.563 1.622.973 3.797 1.542 6.146 1.542 2.349 0 4.524-.569 6.145-1.541.286-.172.56-.36.818-.564v2.698c0 .83-.566 1.752-1.847 2.521-1.261.757-3.068 1.257-5.116 1.257-2.049 0-3.855-.5-5.116-1.257-1.281-.768-1.847-1.69-1.847-2.52Zm13.108 4.236c.286-.172.56-.36.818-.563v2.697c0 .83-.566 1.753-1.847 2.521-1.261.757-3.068 1.257-5.116 1.257-2.049 0-3.855-.5-5.116-1.257-1.281-.768-1.847-1.69-1.847-2.52V44.82c.257.203.531.391.818.563 1.621.973 3.796 1.542 6.145 1.542 2.348 0 4.523-.57 6.145-1.542Zm-22.663-6.829v-.592a1 1 0 0 0-2 0v.599a3.389 3.389 0 0 0 .204 6.771h1.592a1.389 1.389 0 0 1 0 2.778H30a1 1 0 1 0 0 2h2.185v.592a1 1 0 0 0 2 0v-.598a3.389 3.389 0 0 0-.204-6.772H32.39a1.389 1.389 0 1 1 0-2.778h3.981a1 1 0 1 0 0-2h-2.185Z" fill="#161616"/></svg>
